Codeartpro/images/main/logo-3.svg

<svg width="172" height="57" viewBox="0 0 172 57" fill="none" xmlns="http://www.w3.org/2000/svg">
<g filter="url(#filter0_d)">
<path fill-rule="evenodd" clip-rule="evenodd" d="M50.8398 50.7317H70.9444L83.8558 17.5367L72.5082 28.3032H59.8643L50.8398 50.7317Z" fill="white"/>
<path fill-rule="evenodd" clip-rule="evenodd" d="M60.668 26.4269H72.0156L88.3682 10.8346L79.5213 34.0667L87.4296 26.562H111.6C111.6 26.562 119.06 13.2028 112.225 6.189C112.225 6.189 111.109 4 97.4368 4H69.514L60.668 26.4269Z" fill="white"/>
<path fill-rule="evenodd" clip-rule="evenodd" d="M79.5213 37.0159L88.0548 28.4383H110.795C110.795 28.4383 108.65 34.2 104.095 36.3908C99.5808 38.5789 81.2194 38.1321 79.5213 37.0159ZM18.8951 14.9008L60.9806 15.2134L63.0363 10.076L20.7716 10.3886L18.8951 14.9008ZM21.2184 8.64556L63.1254 9.31576L65.3144 4H23.274L21.2184 8.64556ZM14.3829 26.4268H53.9668L55.9774 21.602L16.0801 22.0047L14.3829 26.4268ZM16.617 20.485L38.6871 21.1111L40.6977 15.8386L18.4483 16.1512L16.617 20.485ZM9.11131 39.8301L51.4202 39.5175L49.4987 44.6558L7.45743 44.3423L9.11131 39.8301ZM6.60885 46.0404L49.0078 45.371L47.0413 50.7318H5L6.60885 46.0404ZM13.5343 28.3032H53.1173L51.3751 33.128L11.8363 32.7271L13.5343 28.3032ZM11.1661 34.2L33.7281 33.5766L31.6282 38.8915L9.60227 38.5789L11.1661 34.2ZM120.579 14.9008L162.621 15.2134L164.72 10.076L122.411 10.3886L120.579 14.9008ZM122.903 8.64556L164.81 9.31576L167 4H124.914L122.903 8.64556ZM116.068 26.4268H155.606L157.663 21.602L117.765 22.0047L116.068 26.4268ZM118.302 20.485L140.328 21.1111L142.382 15.8386L120.089 16.1512L118.302 20.485ZM110.752 39.8301L153.061 39.5175L151.139 44.6558L109.143 44.3423L110.752 39.8301ZM108.248 46.0404L150.692 45.371L148.683 50.7318H106.641L108.248 46.0404ZM115.218 28.3032H154.759L153.061 33.128L113.476 32.7271L115.218 28.3032ZM112.851 34.2L135.413 33.5766L133.313 38.8915L111.288 38.5789L112.851 34.2Z" fill="white"/>
</g>
<defs>
<filter id="filter0_d" x="0" y="0" width="172" height="56.7318" filterUnits="userSpaceOnUse" color-interpolation-filters="sRGB">
<feFlood flood-opacity="0" result="BackgroundImageFix"/>
<feColorMatrix in="SourceAlpha" type="matrix" values="0 0 0 0 0 0 0 0 0 0 0 0 0 0 0 0 0 0 127 0"/>
<feOffset dy="1"/>
<feGaussianBlur stdDeviation="2.5"/>
<feColorMatrix type="matrix" values="0 0 0 0 0 0 0 0 0 0 0 0 0 0 0 0 0 0 0.05 0"/>
<feBlend mode="normal" in2="BackgroundImageFix" result="effect1_dropShadow"/>
<feBlend mode="normal" in="SourceGraphic" in2="effect1_dropShadow" result="shape"/>
</filter>
</defs>
</svg>

<svg width="172" height="57" fill="none" xmlns="http://www.w3.org/2000/svg"><g filter="url(#filter0_d)" fill-rule="evenodd" clip-rule="evenodd" fill="#fff"><path d="M50.84 50.732h20.104l12.912-33.195-11.348 10.766H59.864L50.84 50.732z"/><path d="M60.668 26.427h11.348l16.352-15.592-8.847 23.232 7.909-7.505h24.17s7.46-13.36.625-20.373c0 0-1.116-2.189-14.788-2.189H69.514l-8.846 22.427z"/><path d="M79.521 37.016l8.534-8.578h22.74s-2.145 5.762-6.7 7.953c-4.514 2.188-22.876 1.741-24.574.625zM18.895 14.9l42.086.312 2.055-5.137-42.264.313-1.877 4.512zm2.323-6.255l41.907.67L65.315 4H23.273l-2.056 4.646zm-6.835 17.78h39.584l2.01-4.824-39.897.403-1.697 4.422zm2.234-5.941l22.07.626 2.01-5.272-22.249.312-1.831 4.334zM9.111 39.83l42.31-.313-1.922 5.139-42.042-.314 1.654-4.512zM6.61 46.04l42.399-.669-1.967 5.36H5l1.609-4.69zm6.925-17.737h39.583l-1.742 4.825-39.539-.4 1.698-4.425zM11.166 34.2l22.562-.623-2.1 5.315-22.026-.313 1.564-4.379zM120.58 14.9l42.042.313 2.099-5.137-42.309.313-1.832 4.512zm2.324-6.254l41.907.67L167 4h-42.086l-2.011 4.646zm-6.835 17.78h39.538l2.057-4.824-39.898.403-1.697 4.422zm2.234-5.941l22.026.626 2.054-5.272-22.293.312-1.787 4.334zm-7.55 19.345l42.309-.313-1.922 5.139-41.996-.314 1.609-4.512zm-2.504 6.21l42.444-.669-2.009 5.36h-42.042l1.607-4.69zm6.97-17.737h39.541l-1.698 4.825-39.585-.4 1.742-4.425zm-2.367 5.897l22.562-.623-2.1 5.315-22.025-.313 1.563-4.379z"/></g><defs><filter id="filter0_d" x="0" y="0" width="172" height="56.732" filterUnits="userSpaceOnUse" color-interpolation-filters="sRGB"><feFlood flood-opacity="0" result="BackgroundImageFix"/><feColorMatrix in="SourceAlpha" values="0 0 0 0 0 0 0 0 0 0 0 0 0 0 0 0 0 0 127 0"/><feOffset dy="1"/><feGaussianBlur stdDeviation="2.5"/><feColorMatrix values="0 0 0 0 0 0 0 0 0 0 0 0 0 0 0 0 0 0 0.05 0"/><feBlend in2="BackgroundImageFix" result="effect1_dropShadow"/><feBlend in="SourceGraphic" in2="effect1_dropShadow" result="shape"/></filter></defs></svg>
